public/logos/globo.svg

<svg width="200" height="200" viewBox="0 0 200 200" fill="none" xmlns="http://www.w3.org/2000/svg">
<path d="M99.7217 0C154.877 0.000132467 199.545 44.9351 199.545 99.9453C199.545 155.056 154.877 200 99.7217 200C44.6774 200 0.000150988 155.056 0 99.9453C0 44.935 44.6763 0 99.7217 0ZM99.7207 50.083C77.3818 49.9693 53.3328 50.5119 31.7422 52.8652C25.4386 53.5064 22.1243 55.003 21.376 61.8496C20.2007 74.2622 20.0938 86.9963 20.0938 99.9453C20.0938 113 20.2007 125.736 21.377 138.147C22.1244 144.997 25.4377 146.496 31.7432 147.137C53.3328 149.492 77.3818 149.919 99.7207 149.919C122.165 149.919 146.214 149.491 167.8 147.137C174.111 146.496 177.416 144.997 178.172 138.147C179.34 125.736 179.454 113 179.454 99.9453C179.454 86.9963 179.34 74.2622 178.172 61.8496C177.418 55.0031 174.111 53.5064 167.8 52.8652C146.214 50.5119 122.165 49.9693 99.7207 50.083Z" fill="white"/>
<path fill-rule="evenodd" clip-rule="evenodd" d="M59.2129 99.9454C59.2129 77.6874 77.2767 59.4949 99.7224 59.4949C122.274 59.4949 140.336 77.6874 140.336 99.9454C140.336 122.31 122.274 140.395 99.7224 140.395C77.2767 140.395 59.2129 122.31 59.2129 99.9454Z" fill="white"/>
</svg>

<svg xmlns="http://www.w3.org/2000/svg" width="200" height="200" fill="none"><path fill="#fff" d="M99.722 0c55.155 0 99.823 44.935 99.823 99.945 0 55.111-44.668 100.055-99.823 100.055C44.677 200 0 155.056 0 99.945 0 44.935 44.676 0 99.722 0m-.001 50.083c-22.34-.114-46.388.429-67.979 2.782-6.303.641-9.618 2.138-10.366 8.985-1.175 12.412-1.282 25.146-1.282 38.095 0 13.055.107 25.791 1.283 38.202.747 6.85 4.06 8.349 10.366 8.99 21.59 2.355 45.639 2.782 67.978 2.782 22.444 0 46.493-.428 68.079-2.782 6.311-.641 9.616-2.14 10.372-8.99 1.168-12.411 1.282-25.147 1.282-38.202 0-12.949-.114-25.683-1.282-38.095-.754-6.847-4.061-8.344-10.372-8.985-21.586-2.353-45.635-2.896-68.08-2.782"/><path fill="#fff" fill-rule="evenodd" d="M59.213 99.945c0-22.258 18.064-40.45 40.51-40.45 22.551 0 40.613 18.192 40.613 40.45 0 22.365-18.062 40.45-40.614 40.45-22.445 0-40.51-18.085-40.51-40.45" clip-rule="evenodd"/></svg>
